img/logos/laravel.svg

<?xml version="1.0" encoding="UTF-8" standalone="no" ?>
<svg width="256px" height="256px" viewBox="0 0 256 256" version="1.1" xmlns="http://www.w3.org/2000/svg" xmlns:xlink="http://www.w3.org/1999/xlink" preserveAspectRatio="xMinYMin meet">
    <g fill="#F35045">
        <path d="M160.444667,208 C162.444667,210.888667 163.666667,210.666667 165.222,210 C166.777333,209.333333 246.778,182.333333 249.222,181.444667 C251.666,180.556 250.888667,179.778 250.111333,178.555333 C249.334,177.332667 222.666667,141.111333 221.333333,139 C220,136.888667 219.333333,137.333333 217.222,138 L132.416667,160.066667 C132.416667,160.066667 158.444667,205.111333 160.444667,208 L160.444667,208 Z"></path>
        <path d="M256,171.115333 L256,128.716667 C246.458667,131.259333 234.391333,134.472667 229.627333,135.74 C236.814,145.356 248.05,160.404667 256,171.115333 L256,171.115333 Z"></path>
        <path d="M229.545333,83.5213333 C228.238,83.818 199.298,89.048 197.515333,89.2853333 C195.732667,89.5226667 196.326667,90.5333333 197.04,91.5433333 L222.507333,126.486 C222.507333,126.486 253.646,118.760667 255.548,118.344667 C255.702,118.310667 255.852667,118.274667 256,118.238 L256,113.611333 C250.34,106.434 234.919333,86.8933333 233.586667,85.0673333 C231.982667,82.868 230.852667,83.2246667 229.545333,83.5213333 L229.545333,83.5213333 Z"></path>
        <path d="M47.456,28.634 C53.7226667,28.3493333 54.2946667,29.7753333 57.048,33.858 L126.218667,149.5 L213.192,128.664667 C208.373333,121.834 186.496667,90.8186667 184.382667,87.8593333 C182.006,84.5313333 184.442,82.986 188.304667,82.3326667 C192.167333,81.6793333 225.444667,76.0933333 228.297333,75.6773333 C231.15,75.2613333 233.408667,74.2513333 238.043333,79.8373333 C240.414667,82.6953333 248.455333,92.7073333 256,102.092 L256,48 C256,34.778 251.305333,23.472 241.916667,14.0833333 C232.528,4.69466667 221.222,0 208,0 L48,0 C34.778,0 23.472,4.69466667 14.0833333,14.0833333 C8.698,19.4686667 4.86533333,25.4873333 2.56866667,32.134 C18.2466667,30.846 43.07,28.8333333 47.456,28.634 L47.456,28.634 Z"></path>
        <path d="M168.288667,223.564 C160.954667,225.786 157.666,226.888667 152.888667,220.222 C149.310667,215.228667 129.962,180.378667 120.474667,163.198667 C102.52,167.901333 69.6606667,176.477333 60.1853333,178.754 C50.9366667,180.976 46.9873333,175.431333 45.468,172.013333 C44.4026667,169.616667 17.2893333,111.159333 0,73.6506667 L0,208 C0,221.222667 4.69466667,232.527333 14.0833333,241.916667 C23.472,251.305333 34.778,256 48,256 L208,256 C221.222,256 232.528,251.305333 241.916667,241.916667 C251.305333,232.527333 256,221.222667 256,208 L256,192.218667 C236.359333,199.402667 173.23,222.066667 168.288667,223.564 L168.288667,223.564 Z"></path>
        <path d="M60.412,165.288 C63.0113333,164.693333 111.724667,153.034667 112.764667,152.812 C113.804667,152.589333 114.472667,151.994667 113.358667,150.064667 C112.244667,148.134667 48.4253333,37.9753333 48.4253333,37.9753333 C47.836,36.964 48.004,36.6273333 46.4033333,36.7113333 C44.976,36.7866667 8.86533333,40.0086667 0.504666667,40.7073333 C0.258,42.446 0.109333333,44.2246667 0.044,46.038 C8.53133333,63.4126667 57.2426667,163.874667 57.516,164.693333 C57.8133333,165.584667 57.8126667,165.882 60.412,165.288 L60.412,165.288 Z"></path>
    </g>
</svg>

<svg width="256" height="256" viewBox="0 0 256 256" xmlns="http://www.w3.org/2000/svg" preserveAspectRatio="xMinYMin meet"><g fill="#F35045"><path d="M160.445 208c2 2.89 3.222 2.667 4.777 2 1.555-.667 81.556-27.667 84-28.555 2.444-.89 1.667-1.667.89-2.89-.778-1.222-27.445-37.444-28.78-39.555-1.332-2.11-2-1.667-4.11-1l-84.805 22.067S158.445 205.11 160.445 208zM256 171.115v-42.398c-9.54 2.542-21.61 5.756-26.373 7.023 7.187 9.616 18.423 24.665 26.373 35.375zM229.545 83.52c-1.307.298-30.247 5.528-32.03 5.765-1.782.238-1.188 1.248-.475 2.258l25.467 34.943s31.14-7.725 33.04-8.14c.155-.035.306-.07.453-.108v-4.627c-5.66-7.176-21.08-26.717-22.413-28.543-1.604-2.2-2.734-1.842-4.042-1.546z"/><path d="M47.456 28.634c6.267-.285 6.84 1.14 9.592 5.224l69.17 115.642 86.974-20.835c-4.82-6.83-26.695-37.846-28.81-40.806-2.376-3.33.06-4.874 3.923-5.527 3.862-.654 37.14-6.24 39.992-6.656 2.853-.416 5.112-1.426 9.746 4.16 2.372 2.858 10.412 12.87 17.957 22.255V48c0-13.222-4.695-24.528-14.083-33.917C232.527 4.695 221.222 0 208 0H48C34.778 0 23.472 4.695 14.083 14.083 8.698 19.47 4.865 25.487 2.57 32.133c15.677-1.287 40.5-3.3 44.886-3.5z"/><path d="M168.29 223.564c-7.335 2.222-10.624 3.325-15.4-3.342-3.58-4.993-22.928-39.843-32.415-57.023-17.955 4.7-50.814 13.277-60.29 15.554-9.248 2.222-13.198-3.323-14.717-6.74C44.403 169.616 17.288 111.158 0 73.65V208c0 13.223 4.695 24.527 14.083 33.917C23.473 251.305 34.778 256 48 256h160c13.222 0 24.528-4.695 33.917-14.083C251.305 232.527 256 221.223 256 208v-15.78c-19.64 7.183-82.77 29.847-87.71 31.344z"/><path d="M60.412 165.288c2.6-.595 51.313-12.253 52.353-12.476 1.04-.223 1.708-.817.594-2.747-1.115-1.93-64.935-112.09-64.935-112.09-.59-1.01-.42-1.348-2.022-1.264-1.427.077-37.538 3.3-45.898 3.997-.247 1.74-.396 3.518-.46 5.33 8.486 17.376 57.198 117.838 57.47 118.656.298.892.298 1.19 2.897.595z"/></g></svg>
